status/48/notification-audio-next.svg

<?xml version="1.0" encoding="UTF-8" standalone="no"?>
<!-- Created with Inkscape (http://www.inkscape.org/) -->

<svg
   xmlns:svg="http://www.w3.org/2000/svg"
   xmlns="http://www.w3.org/2000/svg"
   xmlns:xlink="http://www.w3.org/1999/xlink"
   version="1.1"
   width="48"
   height="48"
   id="svg3178">
  <defs
     id="defs3180">
    <linearGradient
       id="linearGradient5106">
      <stop
         id="stop5108"
         style="stop-color:#729fcf;stop-opacity:1"
         offset="0" />
      <stop
         id="stop5110"
         style="stop-color:#386ea6;stop-opacity:1"
         offset="1" />
    </linearGradient>
    <linearGradient
       x1="16.080709"
       y1="29.954386"
       x2="16.080709"
       y2="11.997724"
       id="linearGradient3259"
       xlink:href="#linearGradient5106"
       gradientUnits="userSpaceOnUse"
       gradientTransform="matrix(-1.027523,0,0,-1.0434783,51.678679,49.043719)" />
  </defs>
  <g
     id="layer1">
    <g
       transform="matrix(-1,0,0,1,48.250757,0)"
       id="g3253">
      <path
         d="M 3.5779817,12 C 3.2635136,12 3,12.267605 3,12.586957 L 3,35.413043 C 3,35.732394 3.2635137,36 3.5779817,36 l 3.9816513,0 c 0.3144681,10e-7 0.5779818,-0.267605 0.5779818,-0.586957 l 0,-11.021739 18.3669722,11.086957 0,-11.152174 L 45,35.478261 45,12.521739 26.504587,23.673913 l 0,-11.152174 -18.3669722,11.086957 0,-11.021739 C 8.1376148,12.267605 7.874101,12 7.559633,12 l -3.9816513,0 z"
         id="path2339"
         style="fill:url(#linearGradient3259);fill-opacity:1;fill-rule:evenodd;stroke:none" />
      <path
         d="m 3.5152692,12.499786 4.0770127,0"
         id="path3166"
         style="opacity:0.2;fill:none;stroke:white;stroke-width:1px;stroke-linecap:round;stroke-linejoin:miter;stroke-opacity:1" />
      <path
         d="M 8.3705405,24.071312 26.275642,13.269353"
         id="path3168"
         style="opacity:0.2;fill:none;stroke:white;stroke-width:1px;stroke-linecap:butt;stroke-linejoin:miter;stroke-opacity:1" />
      <path
         d="M 26.845655,24.071312 44.750757,13.269353"
         id="path3170"
         style="opacity:0.2;fill:none;stroke:white;stroke-width:1px;stroke-linecap:butt;stroke-linejoin:miter;stroke-opacity:1" />
    </g>
  </g>
</svg>

<?xml version="1.0" encoding="UTF-8" standalone="no"?>
<!-- Created with Inkscape (http://www.inkscape.org/) -->
<svg
   xmlns:dc="http://purl.org/dc/elements/1.1/"
   xmlns:cc="http://creativecommons.org/ns#"
   xmlns:rdf="http://www.w3.org/1999/02/22-rdf-syntax-ns#"
   xmlns:svg="http://www.w3.org/2000/svg"
   xmlns="http://www.w3.org/2000/svg"
   xmlns:xlink="http://www.w3.org/1999/xlink"
   xmlns:sodipodi="http://sodipodi.sourceforge.net/DTD/sodipodi-0.dtd"
   xmlns:inkscape="http://www.inkscape.org/namespaces/inkscape"
   width="48px"
   height="48px"
   id="svg3178"
   sodipodi:version="0.32"
   inkscape:version="0.46"
   sodipodi:docname="notification-audio-next.svg"
   inkscape:output_extension="org.inkscape.output.svg.inkscape">
  <defs
     id="defs3180">
    <linearGradient
       id="linearGradient5106">
      <stop
         id="stop5108"
         offset="0"
         style="stop-color:#729fcf;stop-opacity:1;" />
      <stop
         id="stop5110"
         offset="1"
         style="stop-color:#386ea6;stop-opacity:1;" />
    </linearGradient>
    <linearGradient
       inkscape:collect="always"
       xlink:href="#linearGradient5106"
       id="linearGradient3259"
       gradientUnits="userSpaceOnUse"
       gradientTransform="matrix(-1.027523,0,0,-1.0434783,51.678679,49.043719)"
       x1="16.080709"
       y1="29.954386"
       x2="16.080709"
       y2="11.997724" />
  </defs>
  <sodipodi:namedview
     id="base"
     pagecolor="#ffffff"
     bordercolor="#666666"
     borderopacity="1.0"
     inkscape:pageopacity="0.0"
     inkscape:pageshadow="2"
     inkscape:zoom="7"
     inkscape:cx="24"
     inkscape:cy="24"
     inkscape:current-layer="layer1"
     showgrid="true"
     inkscape:grid-bbox="true"
     inkscape:document-units="px"
     inkscape:window-width="640"
     inkscape:window-height="679"
     inkscape:window-x="0"
     inkscape:window-y="134" />
  <metadata
     id="metadata3183">
    <rdf:RDF>
      <cc:Work
         rdf:about="">
        <dc:format>image/svg+xml</dc:format>
        <dc:type
           rdf:resource="http://purl.org/dc/dcmitype/StillImage" />
      </cc:Work>
    </rdf:RDF>
  </metadata>
  <g
     id="layer1"
     inkscape:label="Layer 1"
     inkscape:groupmode="layer">
    <g
       id="g3253"
       transform="matrix(-1,0,0,1,48.250757,0)">
      <path
         id="path2339"
         d="M 3.5779817,12 C 3.2635136,12 3,12.267605 3,12.586957 L 3,35.413043 C 3,35.732394 3.2635137,36 3.5779817,36 L 7.559633,36 C 7.8741011,36.000001 8.1376148,35.732395 8.1376148,35.413043 L 8.1376148,24.391304 L 26.504587,35.478261 L 26.504587,24.326087 L 45,35.478261 L 45,12.521739 L 26.504587,23.673913 L 26.504587,12.521739 L 8.1376148,23.608696 L 8.1376148,12.586957 C 8.1376148,12.267605 7.874101,12 7.559633,12 L 3.5779817,12 z"
         style="fill:url(#linearGradient3259);fill-opacity:1;fill-rule:evenodd;stroke:none;stroke-width:1.00147772;stroke-linecap:square;stroke-linejoin:round;stroke-miterlimit:4;stroke-dasharray:none;stroke-dashoffset:0.69999992;stroke-opacity:1" />
      <path
         id="path3166"
         d="M 3.5152692,12.499786 L 7.5922819,12.499786"
         style="opacity:0.2;fill:none;fill-rule:evenodd;stroke:#ffffff;stroke-width:1px;stroke-linecap:round;stroke-linejoin:miter;stroke-opacity:1" />
      <path
         sodipodi:nodetypes="cc"
         id="path3168"
         d="M 8.3705405,24.071312 L 26.275642,13.269353"
         style="opacity:0.2;fill:none;fill-rule:evenodd;stroke:#ffffff;stroke-width:1px;stroke-linecap:butt;stroke-linejoin:miter;stroke-opacity:1" />
      <path
         sodipodi:nodetypes="cc"
         id="path3170"
         d="M 26.845655,24.071312 L 44.750757,13.269353"
         style="opacity:0.2;fill:none;fill-rule:evenodd;stroke:#ffffff;stroke-width:1px;stroke-linecap:butt;stroke-linejoin:miter;stroke-opacity:1" />
    </g>
  </g>
</svg>
